bundles/org.openhab.ui.habpanel/web/assets/icons/smarthome-set/remote-control.svg

<?xml version="1.0" encoding="UTF-8" standalone="no"?>
<svg width="32px" height="32px" viewBox="0 0 32 32" version="1.1" xmlns="http://www.w3.org/2000/svg" xmlns:xlink="http://www.w3.org/1999/xlink" xmlns:sketch="http://www.bohemiancoding.com/sketch/ns">
    <!-- Generator: Sketch 3.3.2 (12043) - http://www.bohemiancoding.com/sketch -->
    <title>remote control</title>
    <desc>Created with Sketch.</desc>
    <defs></defs>
    <g id="flatten" stroke="none" stroke-width="1" fill="none" fill-rule="evenodd" sketch:type="MSPage">
        <g id="z-copy" sketch:type="MSArtboardGroup" transform="translate(-100.000000, -228.000000)" fill="#000000">
            <g id="remote-control" sketch:type="MSLayerGroup" transform="translate(100.000000, 228.000000)">
                <path d="M7,15.0001062 C7,13.895478 7.83862744,12.6786654 8.87668651,12.3228912 C8.87668651,12.3228912 11.7752075,11 16.1376038,11 C20.5,11 23.1334562,12.2948748 23.1334562,12.2948748 C24.1643199,12.6843047 25,13.8900584 25,15.0001062 L25,27.9998938 C25,29.104522 24.1703349,30.334755 23.1334562,30.7051252 C23.1334562,30.7051252 20.5,32 16.1376038,32 C11.7752075,32 8.87668651,30.6771088 8.87668651,30.6771088 C7.84022117,30.3031519 7,29.1099416 7,27.9998938 L7,15.0001062 Z M9,15.0001062 L9,27.9998938 C9,28.2653963 9.31022555,28.7073343 9.55545788,28.7958141 L9.70709115,28.8576506 C9.75125901,28.8778089 9.87863692,28.9303013 10.0832863,29.0049731 C10.4499746,29.138769 10.8826301,29.2748098 11.3752866,29.4031103 C12.8050179,29.7754496 14.4077426,30 16.1376038,30 C17.8644533,30 19.4114906,29.7817142 20.7519972,29.4211923 C21.524069,29.2135479 22.0337459,29.0171594 22.2509638,28.910353 L22.3533,28.8600341 L22.4606927,28.8216738 C22.6827663,28.7423497 23,28.2793062 23,27.9998938 L23,15.0001062 C23,14.723696 22.6809087,14.2618685 22.426667,14.1658235 L22.2509638,14.089647 C22.0337459,13.9828406 21.524069,13.7864521 20.7519972,13.5788077 C19.4114906,13.2182858 17.8644533,13 16.1376038,13 C14.4077426,13 12.8050179,13.2245504 11.3752866,13.5968897 C10.8826301,13.7251902 10.4499746,13.861231 10.0832863,13.9950269 C9.87863692,14.0696987 9.75125901,14.1221911 9.70709115,14.1423494 L9.5251202,14.2148568 C9.31083223,14.2882998 9,14.7340638 9,15.0001062 Z M12.4644661,8 C11.9289322,8 12.4644661,7.46446609 12.4644661,7.46446609 C14.4170876,5.51184464 17.5829124,5.51184464 19.5355339,7.46446609 C19.5355339,7.46446609 20.0710679,8 19.535534,8 C19.0000001,8 17.8730997,7.46446609 17.8730997,7.46446609 C16.7051234,6.84517797 15.2948766,6.84517797 14.1269003,7.46446609 C14.1269003,7.46446609 13,8 12.4644661,8 Z M10.5,6 C10,6 10.3431458,5.34314575 10.3431458,5.34314575 C13.4673401,2.21895142 18.5326599,2.21895142 21.6568542,5.34314575 C21.6568542,5.34314575 22.0000004,6 21.5000004,6 C21.0000004,6 20.1248091,5.34314575 20.1248091,5.34314575 C17.6751387,3.55228475 14.3248613,3.55228475 11.8751909,5.34314575 C11.8751909,5.34314575 11,6 10.5,6 Z M22.2861967,3.22182541 C22.2861967,3.22182541 22.9999998,4 23.4999998,4 C23.9999998,4 23.7781746,3.22182541 23.7781746,3.22182541 C19.4824074,-1.0739418 12.5175926,-1.0739418 8.22182541,3.22182541 C8.22182541,3.22182541 7.99999999,4 8.49999999,4 C8.99999999,4 9.7138033,3.22182541 9.7138033,3.22182541 C13.3702296,0.259391531 18.6297704,0.259391531 22.2861967,3.22182541 Z M16,28 C14.3431458,28 13,26.6568542 13,25 C13,23.3431458 14.3431458,22 16,22 C17.6568542,22 19,23.3431458 19,25 C19,26.6568542 17.6568542,28 16,28 Z M16,27 C17.1045695,27 18,26.1045695 18,25 C18,23.8954305 17.1045695,23 16,23 C14.8954305,23 14,23.8954305 14,25 C14,26.1045695 14.8954305,27 16,27 Z M13,20 C11.8954305,20 11,19.1045695 11,18 C11,16.8954305 11.8954305,16 13,16 C14.1045695,16 15,16.8954305 15,18 C15,19.1045695 14.1045695,20 13,20 Z M13,19 C13.5522847,19 14,18.5522847 14,18 C14,17.4477153 13.5522847,17 13,17 C12.4477153,17 12,17.4477153 12,18 C12,18.5522847 12.4477153,19 13,19 Z M19,20 C17.8954305,20 17,19.1045695 17,18 C17,16.8954305 17.8954305,16 19,16 C20.1045695,16 21,16.8954305 21,18 C21,19.1045695 20.1045695,20 19,20 Z M19,19 C19.5522847,19 20,18.5522847 20,18 C20,17.4477153 19.5522847,17 19,17 C18.4477153,17 18,17.4477153 18,18 C18,18.5522847 18.4477153,19 19,19 Z" sketch:type="MSShapeGroup"></path>
            </g>
        </g>
    </g>
</svg>

<svg width="32" height="32" xmlns="http://www.w3.org/2000/svg"><path d="M7 15c0-1.105.839-2.321 1.877-2.677 0 0 2.898-1.323 7.26-1.323 4.363 0 6.996 1.295 6.996 1.295C24.164 12.685 25 13.89 25 15v13c0 1.105-.83 2.335-1.867 2.705 0 0-2.633 1.295-6.995 1.295-4.363 0-7.261-1.323-7.261-1.323C7.84 30.303 7 29.11 7 28V15Zm2 0v13c0 .265.31.707.555.796l.152.062c.044.02.172.072.376.147.367.134.8.27 1.292.398 1.43.372 3.033.597 4.763.597 1.726 0 3.273-.218 4.614-.579.772-.207 1.282-.404 1.499-.51l.102-.051.108-.038c.222-.08.539-.543.539-.822V15c0-.276-.32-.738-.573-.834l-.176-.076c-.217-.107-.727-.304-1.499-.511-1.34-.36-2.888-.579-4.614-.579-1.73 0-3.333.225-4.763.597-.492.128-.925.264-1.292.398a6.321 6.321 0 0 0-.376.147l-.182.073c-.214.073-.525.52-.525.785Zm3.464-7c-.535 0 0-.536 0-.536a5 5 0 0 1 7.072 0s.535.536 0 .536c-.536 0-1.663-.536-1.663-.536a4.01 4.01 0 0 0-3.746 0S13 8 12.464 8ZM10.5 6c-.5 0-.157-.657-.157-.657a8 8 0 0 1 11.314 0S22 6 21.5 6s-1.375-.657-1.375-.657a7.005 7.005 0 0 0-8.25 0S11 6 10.5 6Zm11.786-2.778S23 4 23.5 4s.278-.778.278-.778c-4.296-4.296-11.26-4.296-15.556 0 0 0-.222.778.278.778s1.214-.778 1.214-.778a10.004 10.004 0 0 1 12.572 0ZM16 28a3 3 0 1 1 0-6 3 3 0 0 1 0 6Zm0-1a2 2 0 1 0 0-4 2 2 0 0 0 0 4Zm-3-7a2 2 0 1 1 0-4 2 2 0 0 1 0 4Zm0-1a1 1 0 1 0 0-2 1 1 0 0 0 0 2Zm6 1a2 2 0 1 1 0-4 2 2 0 0 1 0 4Zm0-1a1 1 0 1 0 0-2 1 1 0 0 0 0 2Z" fill="#000" fill-rule="evenodd"/></svg>
